packages/ffe-icons/icons/filled/md/shape_line.svg

<svg xmlns="http://www.w3.org/2000/svg" height="24" viewBox="0 -960 960 960" width="24"><path d="M240.114-540.001q-74.652 0-127.382-52.637-52.73-52.637-52.73-127.319 0-75.581 52.636-127.811 52.637-52.231 127.319-52.231 75.581 0 127.811 52.167 52.231 52.166 52.231 127.718 0 74.652-52.167 127.382-52.166 52.731-127.718 52.731Zm412.195 480q-29.827 0-51.067-21.24-21.241-21.241-21.241-51.068v-175.382q0-29.827 21.241-51.067 21.24-21.241 51.067-21.241h175.382q29.827 0 51.067 21.241 21.241 21.24 21.241 51.067v175.382q0 29.827-21.241 51.067-21.24 21.24-51.067 21.24H652.309Zm46.69-596.23-395.23 394.23q5 10.462 8.308 22.212 3.307 11.75 3.307 24.403 0 41.666-28.723 70.833-28.724 29.166-71.185 29.166-41.628 0-70.858-29.174-29.231-29.174-29.231-70.852 0-42.511 29.166-71.241 29.167-28.73 70.833-28.73 12.653 0 24.403 3.307 11.75 3.308 22.212 8.308l394.23-395.23q-5-10.462-8.308-21.729-3.307-11.267-3.307-23.886 0-42.5 29.174-71.249 29.174-28.75 70.851-28.75 42.511 0 71.241 28.724 28.731 28.723 28.731 71.184 0 41.629-28.75 70.859-28.749 29.23-71.249 29.23-12.619 0-23.886-3.307-11.267-3.308-21.729-8.308Z"/></svg>

<svg xmlns="http://www.w3.org/2000/svg" height="24" viewBox="0 -960 960 960" width="24"><path d="M240.11-540q-74.65 0-127.38-52.64Q60-645.28 60-719.96q0-75.58 52.64-127.81Q165.28-900 239.96-900q75.58 0 127.81 52.17Q420-795.67 420-720.11q0 74.65-52.17 127.38Q315.67-540 240.11-540Zm412.2 480q-29.83 0-51.07-21.24Q580-102.48 580-132.31v-175.38q0-29.83 21.24-51.07Q622.48-380 652.31-380h175.38q29.83 0 51.07 21.24Q900-337.52 900-307.69v175.38q0 29.83-21.24 51.07Q857.52-60 827.69-60H652.31ZM699-656.23 303.77-262q5 10.46 8.31 22.21 3.3 11.75 3.3 24.4 0 41.67-28.72 70.84-28.72 29.16-71.18 29.16-41.63 0-70.86-29.17-29.23-29.18-29.23-70.85 0-42.51 29.16-71.24 29.17-28.73 70.84-28.73 12.65 0 24.4 3.3 11.75 3.31 22.21 8.31L656.23-699q-5-10.46-8.31-21.73-3.3-11.27-3.3-23.88 0-42.5 29.17-71.25t70.85-28.75q42.51 0 71.24 28.72 28.73 28.72 28.73 71.19 0 41.62-28.75 70.85-28.75 29.23-71.25 29.23-12.61 0-23.88-3.3-11.27-3.31-21.73-8.31Z"/></svg>
